!!!OTL: ES ZIEHN NACH FERNEN LANDEN
!!!ARE: Europa, Mitteleuropa, Deutschland
!!!SCT: B0523
!!!YEM: Copyright 1995, estate of Helmut Schaffrath.
**kern
*ICvox
*Ivox
*M6/8
*k[]
*C:
{8E
=1
4E
8G
4G
8c
=2
4.c
4B}
{8B
=3
4A
8A
4G
8F
=4
[4.E
4E]}
{8E
=5
4E
8G
4G
8c
=6
4.c
4B}
{8A
=7
4G
8B
4B
8A
=8
2G
8r}
{8G
=9
4A
8A
4A
8A
=10
4.A
4d}
{8d
=11
4B
8B
8c
8B
8c
=12
[4.G
4G]}
{8d
=13
4e
8e
4c
8c
=14
4.f
4e}
{8d
=15
4c
8c
8B
8A
8B
=16
2c
8r}
==
!!!AGN: Wander - Lied
!!!ONB: ESAC (Essen Associative Code) Database: BOEHME
!!!AMT: compound duple
!!!AIN: vox
!!!EED: Helmut Schaffrath
!!!EEV: 1.0
*-
